src/assets/images/footer.svg

<svg height="180" viewBox="0 0 1000 180" width="1000" xmlns="http://www.w3.org/2000/svg"><g fill="none" fill-rule="evenodd" transform="translate(84 -108.5)"><path d="m542.213438 119.158554c18.148368 91.105999-107.335448 61.761917-232.887288 88.220957-176.673263 38.415918-213.953425-74.928393-213.953425-74.928393-28.8881818-73.3930181-70.5115612-92.9217234-70.5115612-92.9217234-57.6186195-39.41496364 4.3432177-38.60521119 4.3432177-38.60521119 63.7706349 4.47992917 97.3490715 65.45323739 97.3490715 65.45323739 56.640606 97.0756482 148.563284 69.0077352 184.802336 52.7811372 69.614286-31.1708772 212.70928-91.1060037 230.857649-.000004zm-233.395877 34.489412c.91024 5.133329-4.371268 10.414836-11.91779 11.822532-7.419513 1.36536-14.288648-1.820479-15.23064-6.911471-.920824-5.270923 4.455941-10.552431 11.86487-11.91779 7.546522-1.312439 14.320399 1.778142 15.28356 7.006729zm-48.676658 8.276831c.179931 5.270923-5.958896 9.642191-13.558339 9.737449-7.64178.179931-13.822943-4.096079-13.907617-9.282329 0-5.323844 6.001232-9.642191 13.643012-9.779785 7.58886-.148179 13.822944 4.096079 13.822944 9.324665zm-52.307034-3.82089c-1.555875 4.995734-8.731951 7.271334-15.971532 5.143913-7.228997-2.190926-11.960127-8.054563-10.49951-13.103219 1.502954-5.048655 8.721367-7.408928 16.013869-5.143913 7.218413 2.180342 11.960127 8.001643 10.457173 13.103219zm-47.628824-20.649741c-3.503365 3.863226-10.965214 2.815392-16.426653-2.455531-5.588448-5.143913-7.144323-12.468168-3.630374-16.331395 3.545701-3.863227 11.049887-2.78364 16.553662 2.455531 5.546112 5.143913 7.239581 12.49992 3.503365 16.331395zm-34.525606-35.57344c-3.916148 2.730719-10.319578.179931-14.278063-5.5037755-3.916148-5.6837063-3.916148-12.5105045.084674-15.2412238 3.969068-2.7307192 10.277241-.2646045 14.288647 5.3661809 3.905563 5.7789641 3.905563 12.595178-.095258 15.3788184zm-25.20094-36.8012052c-3.0482448 2.8153928-9.0071399 1.502954-13.0502979-2.9635713-4.1807523-4.4559411-4.9639819-10.4148362-1.8734004-13.2831499 3.1435024-2.8153927 8.9224664-1.4923698 13.113803 2.9635713 4.1807523 4.5088621 4.9957343 10.4148363 1.8098953 13.2831499zm-25.8889121-28.8842359c-1.4076964 3.1858391-6.4034308 4.1384156-10.9546296 1.9580739-4.6358723-2.0956683-7.2395813-6.4245992-5.7366273-9.6104384 1.3759438-3.2599284 6.3822625-4.1701681 11.0075505-1.9898264 4.6464564 2.0850841 7.2925022 6.4563517 5.6837064 9.6421909z" fill="#c98c81" transform="matrix(.70710678 .70710678 .70710678 -.70710678 480.12315028503 153.21076071497)"/><g transform="matrix(1 0 0 -1 0 187)"><path d="m69 8.5v-8h-69v48h69v-25.2974918l19.5-14.7025082z" stroke="#79a69f" stroke-linecap="round" stroke-linejoin="round" stroke-width="2"/><path d="m20.5996094 17.7402344c1.0371145-.4687524 1.9658162-.703125 2.7861328-.703125 1.1074274 0 1.9628876.2490209 2.5664062.7470703.6035187.4980494.9052735 1.2333936.9052735 2.2060547 0 1.0078175-.6533138 2.0537055-1.959961 3.1376953-.5683622.4687523-.9155267.7807609-1.0415039.9360351-.1259772.1552743-.2270504.3442372-.3032226.5668946-.0761723.2226573-.1142578.5009749-.1142578.8349609v.4833984h-1.2041016v-.5009765c0-1.0195364.3251921-1.8134737.9755859-2.381836l1.1601563-1.0195312c.3750019-.3164078.6503897-.6372054.8261719-.9624023.1757821-.325197.2636718-.6723615.2636718-1.041504 0-.609378-.1933574-1.0766585-.5800781-1.4018554-.3867207-.325197-.9140591-.487793-1.5820312-.487793-.6035187 0-1.3652298.2167947-2.2851563.6503906zm2.390625 9.9228515c.3105484 0 .571288.1054677.7822265.3164063.2109386.2109385.3164063.4716781.3164063.7822265 0 .3164079-.1069325.5874013-.3208008.8129883-.2138683.2255871-.473143.3383789-.777832.3383789-.2988296 0-.5537099-.1127918-.7646485-.3383789-.2109385-.225587-.3164062-.4965804-.3164062-.8129883 0-.3164078.1040029-.5786122.3120117-.786621.2080089-.2080089.464354-.3120118.769043-.3120118zm12.3486328-6.3544922-.413086 4.640625h-.7558593l-.413086-4.640625v-4.0341796h1.5820313zm-.7558594 6.3544922c.3105484 0 .571288.1054677.7822266.3164063.2109385.2109385.3164062.4716781.3164062.7822265 0 .3105485-.1069325.580077-.3208008.8085938-.2138682.2285168-.473143.3427734-.777832.3427734-.2988296 0-.5537099-.1127918-.7646484-.3383789-.2109386-.225587-.3164063-.4965804-.3164063-.8129883 0-.3164078.1040029-.5786122.3120117-.786621.2080089-.2080089.464354-.3120118.769043-.3120118zm7.6201172-9.9228515c1.0371146-.4687524 1.9658162-.703125 2.7861328-.703125 1.1074274 0 1.9628876.2490209 2.5664063.7470703.6035186.4980494.9052734 1.2333936.9052734 2.2060547 0 1.0078175-.6533138 2.0537055-1.9599609 3.1376953-.5683623.4687523-.9155268.7807609-1.0415039.9360351-.1259772.1552743-.2270504.3442372-.3032227.5668946-.0761723.2226573-.1142578.5009749-.1142578.8349609v.4833984h-1.2041016v-.5009765c0-1.0195364.3251921-1.8134737.975586-2.381836l1.1601562-1.0195312c.3750019-.3164078.6503898-.6372054.8261719-.9624023.1757821-.325197.2636719-.6723615.2636719-1.041504 0-.609378-.1933575-1.0766585-.5800782-1.4018554-.3867206-.325197-.9140591-.487793-1.5820312-.487793-.6035187 0-1.3652298.2167947-2.2851563.6503906zm2.390625 9.9228515c.3105484 0 .571288.1054677.7822266.3164063.2109385.2109385.3164062.4716781.3164062.7822265 0 .3164079-.1069325.5874013-.3208008.8129883-.2138682.2255871-.473143.3383789-.777832.3383789-.2988296 0-.5537099-.1127918-.7646484-.3383789-.2109386-.225587-.3164063-.4965804-.3164063-.8129883 0-.3164078.1040029-.5786122.3120117-.786621.2080089-.2080089.464354-.3120118.769043-.3120118z" fill="#675a5e" transform="matrix(1 0 0 -1 0 46.950196)"/></g><g fill="#79a69f" transform="matrix(-1 0 0 1 172 178.893678)"><path d="m101.076361 37.2841052c0-2.3315777 1.398722-4.2562688 1.398722-4.2562688l-22.983113.6848428s17.8469303 1.5512104 17.8469303 2.948479c0 1.4402439-8.2480315 3.8493084-8.2480315 3.8493084l13.3842142 1.0299073s-1.398722-1.9246911-1.398722-4.2562687z" transform="matrix(-1 0 0 1 181.967052 0)"/><path d="m38.5567878 45.0663753c31.0362739 0 38.556787 1.3563559 38.5567877-5.7191673.0000007-7.0755233-30.5365985-8.3014828-38.5567877-8.3014828-8.0201893 0-38.5567878.8353969-38.5567878 8.3014828 0 7.4660858 7.52051383 5.7191673 38.5567878 5.7191673z" transform="matrix(1 0 0 -1 0 76.289626)"/><path d="m34.8272914 36.7302114c0-.6262034-.0161289-2.9698485-.0236175-4.4231958-4.8387306 1.0521359-5.8597603-2.0521402-5.8597603-2.0521402-.7911901-2.0100893-1.931172-2.5449419-1.931172-2.5449419-1.5780598-1.0794977.1189522-1.0573202.1189522-1.0573202 1.7465513.1226964 2.6661981 1.7926345 2.6661981 1.7926345 1.551274 2.6587096 4.068854 1.8899851 5.0613698 1.4455707.1561067-1.1238528.6068575-1.8914252 1.1042675-2.3257589-3.863208-.439518-7.9242854-1.9311719-7.9242854-8.5956593 0-1.8986257.6794384-3.4501877 1.7920584-4.6682229-.1805883-.438366-.775925-2.2073828.1684915-4.60313051 0 0 1.4605478-.46716792 4.7842949 1.78312981 1.3873908-.3853703 2.8753005-.5786315 4.3534174-.585544 1.478117.0069125 2.9671788.2001737 4.3571617.585544 3.3197149-2.25029773 4.7779585-1.78312981 4.7779585-1.78312981.9470087 2.39574771.351384 4.16476451.1707957 4.60313051 1.1152122 1.2180352 1.7900423 2.7695972 1.7900423 4.6682229 0 6.6806165-4.068854 8.151245-7.9418547 8.5818344.6238507.5397489 1.1797286 1.5982212 1.1797286 3.220924 0 2.327199-.0239779 5.5874934-.0239779 5.9580527-.9869375.2718331-2.5305569.5380921-4.3098545.5405354-1.7792975-.0024417-3.2078768-.2504433-4.3102143-.5405354z" transform="matrix(-1 0 0 1 76.57441 0)"/><path d="m38.7453694 36.3740818c7.1665096 0 11.7548653-.5710008 15.2998887-2.2503464 4.4374725-2.1021159 6.7325614-5.9084933 6.7325614-11.7703037 0-12.1681863-9.8642639-22.03245019-22.0324501-22.03245019s-22.0324502 9.86426389-22.0324502 22.03245019c0 5.8618104 2.2950889 9.6681878 6.7325614 11.7703037 3.5450234 1.6793456 8.1333791 2.2503464 15.2998888 2.2503464zm0-3.0044251c-14.3553311 0-20.0295002-2.6879627-20.0295002-12.0177 0-11.0619875 8.9675127-20.02950018 20.0295002-20.02950018s20.0295001 8.96751268 20.0295001 20.02950018c0 9.3297373-5.6741691 12.0177-20.0295001 12.0177z"/></g></g></svg>

<?xml version="1.0" encoding="UTF-8" standalone="no"?>
<svg width="1000px" height="180px" viewBox="0 0 1000 180" version="1.1" xmlns="http://www.w3.org/2000/svg" xmlns:xlink="http://www.w3.org/1999/xlink">
    <defs></defs>
    <g stroke="none" stroke-width="1" fill="none" fill-rule="evenodd">
        <g transform="translate(84.000000, -108.500000)">
            <g transform="translate(749.000000, 269.000000) rotate(45.000000) translate(-749.000000, -269.000000) translate(477.000000, 161.000000)" fill="#C98C81">
                <path d="M542.213438,119.158554 C560.361806,210.264553 434.87799,180.920471 309.32615,207.379511 C132.652887,245.795429 95.372725,132.451118 95.372725,132.451118 C66.4845432,59.0580999 24.8611638,39.5293946 24.8611638,39.5293946 C-32.7574557,0.114430957 29.2043815,0.924183412 29.2043815,0.924183412 C92.9750164,5.40411258 126.553453,66.3774208 126.553453,66.3774208 C183.194059,163.453069 275.116737,135.385156 311.355789,119.158558 C380.970075,87.9876808 524.065069,28.0525543 542.213438,119.158554 Z M308.817561,153.647966 C309.727801,158.781295 304.446293,164.062802 296.899771,165.470498 C289.480258,166.835858 282.611123,163.650019 281.669131,158.559027 C280.748307,153.288104 286.125072,148.006596 293.534001,146.641237 C301.080523,145.328798 307.8544,148.419379 308.817561,153.647966 Z M260.140903,161.924797 C260.320834,167.19572 254.182007,171.566988 246.582564,171.662246 C238.940784,171.842177 232.759621,167.566167 232.674947,162.379917 C232.674947,157.056073 238.676179,152.737726 246.317959,152.600132 C253.906819,152.451953 260.140903,156.696211 260.140903,161.924797 Z M207.833869,158.103907 C206.277994,163.099641 199.101918,165.375241 191.862337,163.24782 C184.63334,161.056894 179.90221,155.193257 181.362827,150.144601 C182.865781,145.095946 190.084194,142.735673 197.376696,145.000688 C204.595109,147.18103 209.336823,153.002331 207.833869,158.103907 Z M160.205045,137.454166 C156.70168,141.317392 149.239831,140.269558 143.778392,134.998635 C138.189944,129.854722 136.634069,122.530467 140.148018,118.66724 C143.693719,114.804013 151.197905,115.8836 156.70168,121.122771 C162.247792,126.266684 163.941261,133.622691 160.205045,137.454166 Z M125.679439,101.880726 C121.763291,104.611445 115.359861,102.060657 111.401376,96.3769505 C107.485228,90.6932442 107.485228,83.866446 111.48605,81.1357267 C115.455118,78.4050075 121.763291,80.8711222 125.774697,86.5019076 C129.68026,92.2808717 129.68026,99.0970856 125.679439,101.880726 Z M100.478499,65.0795208 C97.4302542,67.8949136 91.4713591,66.5824748 87.4282011,62.1159495 C83.2474488,57.6600084 82.4642192,51.7011133 85.5548007,48.8327996 C88.6983031,46.0174069 94.4772671,47.3404298 98.6686037,51.7963709 C102.849356,56.305233 103.664338,62.2112072 100.478499,65.0795208 Z M74.5895869,36.1952849 C73.1818905,39.381124 68.1861561,40.3337005 63.6349573,38.1533588 C58.999085,36.0576905 56.395376,31.7287596 57.89833,28.5429204 C59.2742738,25.282992 64.2805925,24.3727523 68.9058805,26.553094 C73.5523369,28.6381781 76.1983827,33.0094457 74.5895869,36.1952849 Z" transform="translate(272.151827, 108.124644) scale(1, -1) translate(-272.151827, -108.124644) "></path>
            </g>
            <g transform="translate(86.000000, 181.500000) scale(1, -1) translate(-86.000000, -181.500000) translate(0.000000, 138.000000)">
                <g transform="translate(0.000000, 38.000000)">
                    <path d="M69,8.5 L69,0.5 L0,0.5 L0,48.5 L69,48.5 L69,23.2025082 L88.5,8.5 L69,8.5 Z" stroke="#79A69F" stroke-width="2" stroke-linecap="round" stroke-linejoin="round"></path>
                    <path d="M20.5996094,17.7402344 C21.6367239,17.271482 22.5654256,17.0371094 23.3857422,17.0371094 C24.4931696,17.0371094 25.3486298,17.2861303 25.9521484,17.7841797 C26.5556671,18.2822291 26.8574219,19.0175733 26.8574219,19.9902344 C26.8574219,20.9980519 26.2041081,22.0439399 24.8974609,23.1279297 C24.3290987,23.596682 23.9819342,23.9086906 23.855957,24.0639648 C23.7299798,24.2192391 23.6289066,24.408202 23.5527344,24.6308594 C23.4765621,24.8535167 23.4384766,25.1318343 23.4384766,25.4658203 L23.4384766,25.9492187 L22.234375,25.9492187 L22.234375,25.4482422 C22.234375,24.4287058 22.5595671,23.6347685 23.2099609,23.0664062 L24.3701172,22.046875 C24.7451191,21.7304672 25.0205069,21.4096696 25.1962891,21.0844727 C25.3720712,20.7592757 25.4599609,20.4121112 25.4599609,20.0429687 C25.4599609,19.4335907 25.2666035,18.9663102 24.8798828,18.6411133 C24.4931621,18.3159163 23.9658237,18.1533203 23.2978516,18.1533203 C22.6943329,18.1533203 21.9326218,18.370115 21.0126953,18.8037109 L20.5996094,17.7402344 Z M22.9902344,27.6630859 C23.3007828,27.6630859 23.5615224,27.7685536 23.7724609,27.9794922 C23.9833995,28.1904307 24.0888672,28.4511703 24.0888672,28.7617187 C24.0888672,29.0781266 23.9819347,29.34912 23.7680664,29.574707 C23.5541981,29.8002941 23.2949234,29.9130859 22.9902344,29.9130859 C22.6914048,29.9130859 22.4365245,29.8002941 22.2255859,29.574707 C22.0146474,29.34912 21.9091797,29.0781266 21.9091797,28.7617187 C21.9091797,28.4453109 22.0131826,28.1831065 22.2211914,27.9750977 C22.4292003,27.7670888 22.6855454,27.6630859 22.9902344,27.6630859 L22.9902344,27.6630859 Z M35.3388672,21.3085937 L34.9257812,25.9492187 L34.1699219,25.9492187 L33.7568359,21.3085937 L33.7568359,17.2744141 L35.3388672,17.2744141 L35.3388672,21.3085937 Z M34.5830078,27.6630859 C34.8935562,27.6630859 35.1542958,27.7685536 35.3652344,27.9794922 C35.5761729,28.1904307 35.6816406,28.4511703 35.6816406,28.7617187 C35.6816406,29.0722672 35.5747081,29.3417957 35.3608398,29.5703125 C35.1469716,29.7988293 34.8876968,29.9130859 34.5830078,29.9130859 C34.2841782,29.9130859 34.0292979,29.8002941 33.8183594,29.574707 C33.6074208,29.34912 33.5019531,29.0781266 33.5019531,28.7617187 C33.5019531,28.4453109 33.605956,28.1831065 33.8139648,27.9750977 C34.0219737,27.7670888 34.2783188,27.6630859 34.5830078,27.6630859 L34.5830078,27.6630859 Z M42.203125,17.7402344 C43.2402396,17.271482 44.1689412,17.0371094 44.9892578,17.0371094 C46.0966852,17.0371094 46.9521454,17.2861303 47.5556641,17.7841797 C48.1591827,18.2822291 48.4609375,19.0175733 48.4609375,19.9902344 C48.4609375,20.9980519 47.8076237,22.0439399 46.5009766,23.1279297 C45.9326143,23.596682 45.5854498,23.9086906 45.4594727,24.0639648 C45.3334955,24.2192391 45.2324223,24.408202 45.15625,24.6308594 C45.0800777,24.8535167 45.0419922,25.1318343 45.0419922,25.4658203 L45.0419922,25.9492187 L43.8378906,25.9492187 L43.8378906,25.4482422 C43.8378906,24.4287058 44.1630827,23.6347685 44.8134766,23.0664062 L45.9736328,22.046875 C46.3486347,21.7304672 46.6240226,21.4096696 46.7998047,21.0844727 C46.9755868,20.7592757 47.0634766,20.4121112 47.0634766,20.0429687 C47.0634766,19.4335907 46.8701191,18.9663102 46.4833984,18.6411133 C46.0966778,18.3159163 45.5693393,18.1533203 44.9013672,18.1533203 C44.2978485,18.1533203 43.5361374,18.370115 42.6162109,18.8037109 L42.203125,17.7402344 Z M44.59375,27.6630859 C44.9042984,27.6630859 45.165038,27.7685536 45.3759766,27.9794922 C45.5869151,28.1904307 45.6923828,28.4511703 45.6923828,28.7617187 C45.6923828,29.0781266 45.5854503,29.34912 45.371582,29.574707 C45.1577138,29.8002941 44.898439,29.9130859 44.59375,29.9130859 C44.2949204,29.9130859 44.0400401,29.8002941 43.8291016,29.574707 C43.618163,29.34912 43.5126953,29.0781266 43.5126953,28.7617187 C43.5126953,28.4453109 43.6166982,28.1831065 43.824707,27.9750977 C44.0327159,27.7670888 44.289061,27.6630859 44.59375,27.6630859 L44.59375,27.6630859 Z" fill="#675A5E" transform="translate(35.747559, 23.475098) scale(1, -1) translate(-35.747559, -23.475098) "></path>
                </g>
                <g transform="translate(120.500000, 23.106322) scale(-1, -1) translate(-120.500000, -23.106322) translate(69.000000, 0.106322)" fill="#79A69F">
                    <path d="M101.076361,37.2841052 C101.076361,34.9525275 102.475083,33.0278364 102.475083,33.0278364 L79.49197,33.7126792 C79.49197,33.7126792 97.3389003,35.2638896 97.3389003,36.6611582 C97.3389003,38.1014021 89.0908688,40.5104666 89.0908688,40.5104666 L102.475083,41.5403739 C102.475083,41.5403739 101.076361,39.6156828 101.076361,37.2841052 Z" transform="translate(90.983526, 37.284105) scale(-1, 1) translate(-90.983526, -37.284105) "></path>
                    <path d="M38.5567878,45.0663753 C69.5930617,45.0663753 77.1135748,46.4227312 77.1135755,39.347208 C77.1135762,32.2716847 46.576977,31.0457252 38.5567878,31.0457252 C30.5365985,31.0457252 2.4483205e-15,31.8811221 0,39.347208 C2.42185766e-15,46.8132938 7.52051383,45.0663753 38.5567878,45.0663753 Z" transform="translate(38.556788, 38.144813) scale(1, -1) translate(-38.556788, -38.144813) "></path>
                    <path d="M34.8272914,36.7302114 C34.8272914,36.104008 34.8111625,33.7603629 34.8036739,32.3070156 C29.9649433,33.3591515 28.9439136,30.2548754 28.9439136,30.2548754 C28.1527235,28.2447861 27.0127416,27.7099335 27.0127416,27.7099335 C25.4346818,26.6304358 27.1316938,26.6526133 27.1316938,26.6526133 C28.8782451,26.7753097 29.7978919,28.4452478 29.7978919,28.4452478 C31.3491659,31.1039574 33.8667459,30.3352329 34.8592617,29.8908185 C35.0153684,28.7669657 35.4661192,27.9993933 35.9635292,27.5650596 C32.1003212,27.1255416 28.0392438,25.6338877 28.0392438,18.9694003 C28.0392438,17.0707746 28.7186822,15.5192126 29.8313022,14.3011774 C29.6507139,13.8628114 29.0553772,12.0937946 29.9997937,9.69804689 C29.9997937,9.69804689 31.4603415,9.23087897 34.7840886,11.4811767 C36.1714794,11.0958064 37.6593891,10.9025452 39.137506,10.8956327 C40.615623,10.9025452 42.1046848,11.0958064 43.4946677,11.4811767 C46.8143826,9.23087897 48.2726262,9.69804689 48.2726262,9.69804689 C49.2196349,12.0937946 48.6240102,13.8628114 48.4434219,14.3011774 C49.5586341,15.5192126 50.2334642,17.0707746 50.2334642,18.9694003 C50.2334642,25.6500168 46.1646102,27.1206453 42.2916095,27.5512347 C42.9154602,28.0909836 43.4713381,29.1494559 43.4713381,30.7721587 C43.4713381,33.0993577 43.4473602,36.3596521 43.4473602,36.7302114 C42.4604227,37.0020445 40.9168033,37.2683035 39.1375057,37.2707468 C37.3582082,37.2683051 35.9296289,37.0203035 34.8272914,36.7302114 Z" transform="translate(38.287205, 23.464291) scale(-1, 1) translate(-38.287205, -23.464291) "></path>
                    <path d="M38.7453694,36.3740818 C45.911879,36.3740818 50.5002347,35.803081 54.0452581,34.1237354 C58.4827306,32.0216195 60.7778195,28.2152421 60.7778195,22.3534317 C60.7778195,10.1852454 50.9135556,0.320981512 38.7453694,0.320981512 C26.5771832,0.320981512 16.7129192,10.1852454 16.7129192,22.3534317 C16.7129192,28.2152421 19.0080081,32.0216195 23.4454806,34.1237354 C26.990504,35.803081 31.5788597,36.3740818 38.7453694,36.3740818 L38.7453694,36.3740818 Z M38.7453694,33.3696567 C24.3900383,33.3696567 18.7158692,30.681694 18.7158692,21.3519567 C18.7158692,10.2899692 27.6833819,1.32245652 38.7453694,1.32245652 C49.8073569,1.32245652 58.7748695,10.2899692 58.7748695,21.3519567 C58.7748695,30.681694 53.1007004,33.3696567 38.7453694,33.3696567 L38.7453694,33.3696567 Z"></path>
                </g>
            </g>
        </g>
    </g>
</svg>
